build/images/content/marketing/img_6.svg

<svg width="120" height="120" viewBox="0 0 120 120" fill="none" xmlns="http://www.w3.org/2000/svg">
<g clip-path="url(#clip0)">
<path d="M59.4205 93.0939C60.5441 94.2175 62.0983 94.8614 63.6883 94.8614C66.9429 94.8614 69.5876 92.2668 69.7018 89.0396C72.8554 88.9272 75.3906 86.392 75.5029 83.2384C78.6566 83.1261 81.1917 80.5909 81.3041 77.4373C84.5313 77.3212 87.1269 74.6774 87.1269 71.4238C87.1269 71.149 87.0825 70.878 87.0457 70.6051L89.8207 67.8302L92.0631 72.317L105.396 65.651L103.665 62.1914L93.7938 67.1286L82.0698 43.6787L92.2473 39.6876L90.8357 36.0864L79.3109 40.6063L62.068 35.433C60.7745 35.0468 59.4441 34.9109 58.1251 34.959V34.9165H37.164L28.3396 31.9839L27.1197 35.654L34.2918 38.0362L24.171 63.3424L18.2311 60.9659L16.7959 64.5566L26.3247 68.3683L28.7173 62.3888L32.1825 65.8559L28.9495 69.0897C27.826 70.2133 27.182 71.7674 27.182 73.3575C27.182 76.6111 29.7767 79.2568 33.0039 79.371C33.1163 82.5246 35.6514 85.0598 38.805 85.1721C38.9174 88.3257 41.4525 90.8609 44.6061 90.9733C44.7223 94.2005 47.366 96.7952 50.6206 96.7952C52.2097 96.7952 53.7648 96.1512 54.8875 95.0276L58.1213 91.7947L59.4205 93.0939ZM60.9539 39.1399L78.0362 44.2641L87.9965 64.1875L85.1932 66.9889L77.245 58.9802C77.955 59.0473 78.6707 59.0879 79.3921 59.0879V55.2205C74.8902 55.2205 70.5818 53.5445 67.2639 50.5023L62.7422 46.3602C60.19 44.0167 55.8609 44.1102 53.4107 46.5632L48.2885 51.6864C47.8825 52.0886 47.3235 52.3199 46.7532 52.3199C45.5579 52.3199 44.5854 51.3474 44.5854 50.153C44.5854 49.5723 44.8091 49.0294 45.2189 48.6187L52.5902 41.2483C54.7581 39.0804 58.009 38.2562 60.9539 39.1399ZM38.1592 38.784H49.5858L42.4855 45.8852C41.344 47.0239 40.718 48.5403 40.718 50.153C40.718 53.4803 43.425 56.1873 46.7532 56.1873C48.3423 56.1873 49.8974 55.5434 51.02 54.4198L56.1432 49.2957C57.1913 48.2514 59.0372 48.2108 60.1287 49.2107L64.6495 53.3547C66.1517 54.7314 67.821 55.8767 69.6074 56.7737L82.625 69.8894C83.0291 70.2945 83.2595 70.8525 83.2595 71.4238C83.2595 72.6182 82.287 73.5907 81.0916 73.5907C80.5213 73.5907 79.9624 73.3612 79.5583 72.9571L63.3559 56.7538L60.6215 59.4882L76.8239 75.6906C77.228 76.0956 77.4584 76.6536 77.4584 77.2249C77.4584 78.4193 76.4859 79.3918 75.2905 79.3918C74.7202 79.3918 74.1613 79.1624 73.7571 78.7582L57.5548 62.555L54.8204 65.2893L71.0228 81.4917C71.4269 81.8967 71.6573 82.4548 71.6573 83.026C71.6573 84.2204 70.6847 85.1929 69.4894 85.1929C68.9191 85.1929 68.3601 84.9635 67.956 84.5594L51.7537 68.3561L49.0193 71.0905L65.2216 87.2928C65.6258 87.6979 65.8561 88.2559 65.8561 88.8271C65.8561 90.0215 64.8836 90.994 63.6883 90.994C63.118 90.994 62.559 90.7646 62.1549 90.3605L59.9738 88.1784C60.0125 87.9084 60.055 87.6374 60.055 87.3608C60.055 84.1061 57.4594 81.4615 54.2322 81.3472C54.1198 78.1936 51.5847 75.6585 48.4311 75.5461C48.3187 72.3925 45.7835 69.8573 42.6299 69.745C42.5138 66.5177 39.871 63.9221 36.6164 63.9221C36.3416 63.9221 36.0706 63.9665 35.7987 64.0033L30.278 58.4827L38.1592 38.784ZM31.0494 73.3575C31.0494 72.7862 31.2789 72.2282 31.683 71.8231L35.083 68.4241C35.4871 68.0199 36.0461 67.7896 36.6164 67.7896C37.8117 67.7896 38.7843 68.763 38.7843 69.9574C38.7843 70.5277 38.5539 71.0867 38.1498 71.4908L34.7507 74.8908C34.3465 75.2949 33.7876 75.5244 33.2173 75.5244C32.0219 75.5244 31.0494 74.5519 31.0494 73.3575ZM36.8505 79.1586C36.8505 78.5873 37.08 78.0293 37.4841 77.6243L40.8841 74.2252C41.2882 73.8211 41.8472 73.5907 42.4175 73.5907C43.6129 73.5907 44.5854 74.5641 44.5854 75.7585C44.5854 76.3288 44.355 76.8878 43.9509 77.2919L40.5518 80.6919C40.1477 81.0961 39.5887 81.3255 39.0184 81.3255C37.8231 81.3255 36.8505 80.353 36.8505 79.1586ZM42.6517 84.9597C42.6517 84.3885 42.8811 83.8304 43.2852 83.4254L46.6853 80.0263C47.0894 79.6222 47.6483 79.3918 48.2186 79.3918C49.414 79.3918 50.3865 80.3653 50.3865 81.5597C50.3865 82.13 50.1561 82.6889 49.752 83.093L46.3529 86.4931C45.9488 86.8972 45.3898 87.1266 44.8195 87.1266C43.6242 87.1266 42.6517 86.1541 42.6517 84.9597ZM55.5531 88.8941L52.154 92.2942C51.7499 92.6983 51.1909 92.9277 50.6206 92.9277C49.4253 92.9277 48.4528 91.9552 48.4528 90.7608C48.4528 90.1896 48.6822 89.6316 49.0863 89.2265L52.4864 85.8274C52.8905 85.4233 53.4494 85.1929 54.0197 85.1929C55.2151 85.1929 56.1876 86.1664 56.1876 87.3608C56.1876 87.9311 55.9572 88.49 55.5531 88.8941Z" fill="#043A52"/>
<path d="M23.1367 94.2392L25.8711 91.5039L28.6055 94.2392L25.8711 96.9736L23.1367 94.2392Z" fill="#043A52"/>
<path d="M30.5137 100.781L32.6636 97.5664L35.8767 99.7144L33.7277 102.929L30.5137 100.781Z" fill="#043A52"/>
<path d="M39.0254 105.763L40.5059 102.19L44.0787 103.671L42.5982 107.244L39.0254 105.763Z" fill="#043A52"/>
<path d="M48.3496 108.992L49.105 105.201L52.8949 105.957L52.1396 109.747L48.3496 108.992Z" fill="#043A52"/>
<path d="M84.2305 20.3922L86.3804 17.1772L89.5935 19.3253L87.4436 22.5403L84.2305 20.3922Z" fill="#043A52"/>
<path d="M76.0273 16.4405L77.5078 12.8677L81.0807 14.3482L79.6002 17.921L76.0273 16.4405Z" fill="#043A52"/>
<path d="M67.2158 14.1624L67.9693 10.3687L71.7602 11.1221L71.0068 14.9149L67.2158 14.1624Z" fill="#043A52"/>
<path d="M96.7957 15.5796H92.9283V25.2481H83.2598V29.1155H96.7957V15.5796Z" fill="#043A52"/>
<path d="M27.1823 83.2593H15.5801V94.8615H19.4475V87.1267H27.1823V83.2593Z" fill="#043A52"/>
<path d="M60.0554 13.6457H61.9891V9.77832H60.0554C47.3296 9.77832 35.1872 14.5437 25.8652 23.1943L28.4967 26.0298C37.1021 18.0438 48.3077 13.6457 60.0554 13.6457Z" fill="#043A52"/>
<path d="M60.0548 106.464H58.1211V110.331H60.0548C77.731 110.331 93.7861 101.31 103.004 86.2005L99.7033 84.1875C91.1933 98.1361 76.3714 106.464 60.0548 106.464Z" fill="#043A52"/>
<path d="M10.7808 80.1206L0.112359 74.7878L0 22.5664L30.4559 32.6872L28.9112 35.7794L10.7808 80.1206Z" fill="#00BBD3"/>
<path d="M111.55 80.2584L88.8252 36.8756L120.001 24.6445V74.6254L111.55 80.2584Z" fill="#00BBD3"/>
</g>
<defs>
<clipPath id="clip0">
<rect width="120" height="120" fill="white"/>
</clipPath>
</defs>
</svg>

<svg width="120" height="120" fill="none" xmlns="http://www.w3.org/2000/svg"><g clip-path="url(#clip0)"><path d="M59.42 93.094a6.075 6.075 0 004.268 1.767c3.255 0 5.9-2.594 6.014-5.821a6.023 6.023 0 005.8-5.802 6.023 6.023 0 005.802-5.8c3.227-.117 5.823-2.76 5.823-6.014 0-.275-.044-.546-.081-.819l2.775-2.775 2.242 4.487 13.333-6.666-1.731-3.46-9.871 4.938-11.724-23.45 10.177-3.991-1.411-3.602-11.525 4.52-17.243-5.173c-1.293-.386-2.624-.522-3.943-.474v-.043H37.164l-8.824-2.932-1.22 3.67 7.172 2.382L24.17 63.342l-5.94-2.376-1.435 3.59 9.529 3.812 2.392-5.98 3.465 3.468-3.233 3.234a6.075 6.075 0 00-1.767 4.267c0 3.254 2.595 5.9 5.822 6.014a6.023 6.023 0 005.801 5.801 6.023 6.023 0 005.801 5.801c.116 3.228 2.76 5.822 6.015 5.822a6.076 6.076 0 004.267-1.767l3.233-3.233 1.3 1.299zm1.534-53.954l17.082 5.124 9.96 19.923-2.803 2.802-7.948-8.009c.71.067 1.426.108 2.147.108V55.22c-4.502 0-8.81-1.676-12.128-4.719l-4.522-4.142c-2.552-2.343-6.881-2.25-9.331.203l-5.123 5.123a2.17 2.17 0 01-3.07-3.068l7.372-7.37a8.466 8.466 0 018.364-2.108zm-22.795-.356h11.427l-7.1 7.101a5.986 5.986 0 00-1.768 4.268 6.041 6.041 0 006.035 6.034c1.59 0 3.144-.644 4.267-1.767l5.123-5.124c1.048-1.045 2.894-1.085 3.986-.085l4.52 4.144a21.839 21.839 0 004.958 3.419l13.018 13.115a2.17 2.17 0 01-3.067 3.068L63.356 56.754l-2.735 2.734 16.203 16.203a2.17 2.17 0 01-3.067 3.068L57.555 62.554l-2.735 2.734 16.203 16.203a2.17 2.17 0 01-3.067 3.068L51.754 68.355l-2.735 2.735 16.203 16.202a2.17 2.17 0 01-3.067 3.068l-2.181-2.183c.039-.27.081-.54.081-.817 0-3.255-2.596-5.9-5.823-6.014a6.023 6.023 0 00-5.8-5.8 6.023 6.023 0 00-5.802-5.802c-.116-3.227-2.759-5.823-6.014-5.823-.274 0-.545.045-.817.081l-5.521-5.52 7.881-19.699zm-7.11 34.574c0-.572.23-1.13.634-1.535l3.4-3.399a2.171 2.171 0 013.067 3.067l-3.4 3.4a2.17 2.17 0 01-3.701-1.533zm5.801 5.8c0-.57.23-1.129.634-1.534l3.4-3.399a2.17 2.17 0 013.067 3.067l-3.4 3.4a2.17 2.17 0 01-3.701-1.533zm5.802 5.802c0-.572.23-1.13.633-1.535l3.4-3.399a2.171 2.171 0 013.067 3.067l-3.4 3.4a2.17 2.17 0 01-3.701-1.533zm12.901 3.934l-3.399 3.4a2.17 2.17 0 01-3.068-3.068l3.4-3.399a2.171 2.171 0 013.067 3.067zM23.137 94.24l2.734-2.736 2.735 2.735-2.735 2.735-2.734-2.735zm7.377 6.541l2.15-3.215 3.213 2.148-2.15 3.215-3.213-2.148zm8.511 4.982l1.48-3.573 3.574 1.481-1.48 3.573-3.574-1.481zm9.325 3.229l.755-3.791 3.79.756-.755 3.79-3.79-.755zm35.88-88.6l2.15-3.215 3.214 2.148-2.15 3.215-3.213-2.148zm-8.203-3.952l1.48-3.572 3.574 1.48-1.48 3.573-3.574-1.48zm-8.811-2.278l.753-3.793 3.791.753-.753 3.793-3.791-.753z" fill="#043A52"/><path d="M96.796 15.58h-3.868v9.668H83.26v3.867h13.536V15.58zM27.182 83.26H15.58v11.602h3.868v-7.735h7.734v-3.868zm32.873-69.614h1.934V9.778h-1.934a50.113 50.113 0 00-34.19 13.416l2.632 2.836a46.25 46.25 0 0131.558-12.384zm0 92.818H58.12v3.867h1.934c17.676 0 33.731-9.021 42.949-24.13l-3.3-2.013c-8.51 13.948-23.333 22.276-39.65 22.276z" fill="#043A52"/><path d="M10.78 80.12L.113 74.789 0 22.566l30.456 10.121-1.545 3.092-18.13 44.342zm100.77.138L88.825 36.876l31.176-12.231v49.98l-8.451 5.633z" fill="#00BBD3"/></g><defs><clipPath id="clip0"><path fill="#fff" d="M0 0h120v120H0z"/></clipPath></defs></svg>
